X:524 
T:Mudgee Schottische
R:shottish
S:https://lesters-tune-a-day.blogspot.com/2021/01/tune-524-mudgee-schottische.html
N:A tune from Mudgee in New South Wales, Australia.
M:4/4
L:1/8
K:G
G>A |\
B2 B2 c>B c>e | d2 G2 G2 G>A | B2 B2 c>B c2 | d>e d>B A2 G>A | 
B2 B2 c>B c>e | d2 G2 G2 G>A | B2 B>G A2 BA | G2 G2 G2 :| 
z2 |\
g2 G2 e2 G2 | e>d e>d B2 G>B | d>e d>B A3 B | (3cec B>A G2 z2 | 
g2 G2 e2 G2 | e>d e>d B2 G>B | d>e d>B (3cec B>A | G2 G2 G2 :| 
